!!!OTL: Die Brombeerpflueckerin Es wollt ein Maedel in der Frueh aufstehn,
!!!ARE: Europa, Mitteleuropa, Deutschland / France, Lothringen, Luetzelburg
!!!YOR: 7, S. 181
!!    1937 Handschrift (vor)
!!!SCT: Q0147P
!!!YEM: Copyright 1995, estate of Helmut Schaffrath.
**kern
*ICvox
*Ivox
*M4/4
*k[f#]
*G:
{4d
=1
4g
4d
8.d
16d
8g
8g
=2
4e
4e
4e}
{4g
=3
4f#
4a
4dd
4dd
=4
4b
2r}
{4d
=5
4g
4d
8.d
16d
8g
8g
=6
4e
4e
4e}
{4g
=7
4f#
4a
4dd
4dd
=8
4b
2r}
{8g
8a
=9
4.b
8b
4b
4dd
=10
4dd
4cc
4a
8r}
{8dd
=11
4.dd
8ff#
4.ff#
16ee
16ee
=12
4ee
4dd
4b}
{8dd
8ee
=13
4dd
4cc
4a
4dd
=14
4b
2r}
{8g
8a
=15
4.b
8b
4b
4dd
=16
4dd
4cc
4a
8r}
{8dd
=17
4.dd
8ff#
4.ff#
16ee
16ee
=18
4ee
4dd
4b}
{8dd
8ee
=19
4dd
4cc
4a
4dd
=20
4b
2r}
==
!!!AGN: Ballade, Verfuehrung, Schwangerschaft
!! Sechste und neunte Zeile = refrainartig.
!!!ONB: ESAC (Essen Associative Code) Database: BALLADE
!!!AMT: simple quadruple
!!!AIN: vox
!!!EED: Helmut Schaffrath
!!!EEV: 1.0
*-
